packages/iconset/src/svg/icon_mail_alt.svg

<?xml version="1.0" encoding="UTF-8"?>
<svg fill="currentColor" version="1.1" viewBox="0 0 32 32" xmlns="http://www.w3.org/2000/svg">
 <g transform="translate(0,-4)">
  <path d="m30 8h-28c-1.104 0-2 0.896-2 2v20c0 1.104 0.896 2 2 2h28c1.104 0 2-0.896 2-2v-20c0-1.104-0.896-2-2-2zm-18.64 14.054 4.644 3.156 4.616-3.178 7.966 7.968h-25.172zm-9.36 6.532v-12.896l7.676 5.218zm20.294-7.706 7.706-5.304v13.01zm7.706-10.88v3.236l-0.042-0.06-13.962 9.614-13.996-9.516v-3.274z"/>
 </g>
</svg>

<svg viewBox="0 0 32 32" xmlns="http://www.w3.org/2000/svg" xmlns:xlink="http://www.w3.org/1999/xlink" fill="currentColor">
    <g>
        <path d="M 30,8L 2,8 C 0.896,8,0,8.896,0,10l0,20 c0,1.104, 0.896,2, 2,2l 28,0 c 1.104,0, 2-0.896, 2-2L 32,10 C 32,8.896, 31.104,8, 30,8z M 11.36,22.054l 4.644,3.156l 4.616-3.178L 28.586,30L 3.414,30 L 11.36,22.054z M 2,28.586L 2,15.69 l 7.676,5.218L 2,28.586z M 22.294,20.88 L 30,15.576l0,13.010 L 22.294,20.88z M 30,10l0,3.236 l-0.042-0.060l-13.962,9.614L 2,13.274L 2,10 L 30,10 z"></path>
    </g>
</svg>
